X:1
T:Title
%%score { 1 | 2 }
L:1/8
Q:1/4=100
M:4/4
K:Ab
V:1 treble nm="Grand Piano"
V:2 bass 
V:1
 [CE][CE][CE][CE] [CA]2 [CA][CA] | [DF]2 [DF]2 [CA]4 | [CE][CE][CE][CE] [EA]2 [Ec]2 | B8 | %4
w: Robert~Lowry * * * * * *||||
 EEEE [CA]2 [CA]2 | FFFF A4 | EEEA c2 B2 |[M:3/4] [CA]6 |[M:1/4] [CA]2 | %9
w: |||||
[M:4/4] [DA]2 [DF]2 [CE]3 [CA] | [DA]2 [DF]2 [CE]2 [CE][CE] | FFF[EG] [EA]2 [Ec]2 | %12
w: |||
 [Ec]2 [EB]4 [CA][DB] | [Ec][Ec]Bc A2 [EA][EG] | [DF][DF] [FA]>[DF] [CE]3 [CE] | %15
w: |||
 [DF][EG][EA][FB] [Ec]3 [DEB] | [DEB]2 [CEA]6 |] %17
w: ||
V:2
 [A,,A,][A,,A,][A,,A,][A,,A,] [A,,E,]2 [A,,A,][A,,A,] | [D,A,]2 [D,A,]2 [A,,A,]4 | %2
 [A,,A,][A,,A,][A,,A,][A,,A,] [C,A,]2 [A,,A,]2 | [E,G,E]8 | %4
 [A,C][A,C][A,C][A,C] [A,,A,]2 [A,,A,]2 | [D,A,D][D,A,D][D,A,D][D,A,D] [D,F,D]4 | %6
 [E,A,C][E,A,C][E,A,C][E,A,C] [E,A,E]2 [E,G,D]2 |[M:3/4] [A,,A,]6 |[M:1/4] [A,,E,]2 | %9
[M:4/4] [D,F,]2 [D,A,]2 [A,,A,]3 [A,,E,] | [D,F,]2 [D,A,]2 [A,,A,]2 [A,,A,][A,,A,] | %11
 [D,A,D][D,A,D][D,A,D][D,B,] [C,A,]2 [A,,A,]2 | [E,A,]2 [E,G,]4 [A,,A,][A,,A,] | %13
 [A,,A,][A,,A,][E,G,D][E,G,E] [F,A,C]2 [C,B,][C,A,] | [D,A,][D,A,] [D,A,]>[D,A,] [A,,A,]3 [A,,A,] | %15
 [D,A,][D,B,][C,A,][D,A,] [E,A,]3 E, | A,,2 A,,6 |] %17

